grid.svg

<svg fill="currentColor" viewBox="0 0 24 24"><path d="M10 4v4h4V4zm6 0v4h4V4zm0 6v4h4v-4zm0 6v4h4v-4zm-2 4v-4h-4v4zm-6 0v-4H4v4zm0-6v-4H4v4zm0-6V4H4v4zm2 6h4v-4h-4zM4 2h16a2 2 0 0 1 2 2v16a2 2 0 0 1-2 2H4c-1.08 0-2-.9-2-2V4a2 2 0 0 1 2-2"/></svg>

<svg  viewBox="0 0 24 24" fill="currentColor"><path  d="M10,4V8H14V4H10M16,4V8H20V4H16M16,10V14H20V10H16M16,16V20H20V16H16M14,20V16H10V20H14M8,20V16H4V20H8M8,14V10H4V14H8M8,8V4H4V8H8M10,14H14V10H10V14M4,2H20A2,2 0 0,1 22,4V20A2,2 0 0,1 20,22H4C2.92,22 2,21.1 2,20V4A2,2 0 0,1 4,2Z"/></svg>
